svg/torchFlame.svg

<?xml version="1.0" encoding="UTF-8" standalone="no"?>
<!-- Created with Inkscape (http://www.inkscape.org/) -->

<svg
   width="32"
   height="32"
   viewBox="0 0 8.4666666 8.4666668"
   version="1.1"
   id="svg5"
   inkscape:version="1.2 (dc2aeda, 2022-05-15)"
   sodipodi:docname="torchFlame.svg"
   xmlns:inkscape="http://www.inkscape.org/namespaces/inkscape"
   xmlns:sodipodi="http://sodipodi.sourceforge.net/DTD/sodipodi-0.dtd"
   xmlns:xlink="http://www.w3.org/1999/xlink"
   xmlns="http://www.w3.org/2000/svg"
   xmlns:svg="http://www.w3.org/2000/svg"
   xmlns:rdf="http://www.w3.org/1999/02/22-rdf-syntax-ns#"
   xmlns:cc="http://creativecommons.org/ns#">
  <sodipodi:namedview
     id="namedview7"
     pagecolor="#ffffff"
     bordercolor="#111111"
     borderopacity="1"
     inkscape:pageshadow="0"
     inkscape:pageopacity="0"
     inkscape:pagecheckerboard="1"
     inkscape:document-units="mm"
     showgrid="true"
     width="32mm"
     units="px"
     objecttolerance="10000"
     guidetolerance="10000"
     inkscape:snap-perpendicular="true"
     inkscape:snap-tangential="true"
     inkscape:zoom="34.90625"
     inkscape:cx="5.7153089"
     inkscape:cy="13.880036"
     inkscape:window-width="2560"
     inkscape:window-height="1301"
     inkscape:window-x="0"
     inkscape:window-y="25"
     inkscape:window-maximized="0"
     inkscape:current-layer="layer1"
     inkscape:showpageshadow="0"
     inkscape:deskcolor="#d1d1d1">
    <inkscape:grid
       type="xygrid"
       id="grid9"
       units="px"
       empspacing="4" />
  </sodipodi:namedview>
  <defs
     id="defs2">
    <linearGradient
       inkscape:collect="always"
       id="linearGradient6591">
      <stop
         style="stop-color:#ffffff;stop-opacity:1;"
         offset="0"
         id="stop6593" />
      <stop
         style="stop-color:#ffff00;stop-opacity:1;"
         offset="0.25401929"
         id="stop6585" />
      <stop
         style="stop-color:#ff0000;stop-opacity:0.99607843"
         offset="0.746306"
         id="stop6587" />
      <stop
         style="stop-color:#ff0000;stop-opacity:0;"
         offset="1"
         id="stop6589" />
    </linearGradient>
    <linearGradient
       inkscape:collect="always"
       xlink:href="#linearGradient6591"
       id="linearGradient6583"
       x1="4.2333331"
       y1="4.4979167"
       x2="4.2333331"
       y2="0.79374999"
       gradientUnits="userSpaceOnUse" />
  </defs>
  <g
     inkscape:label="Layer 1"
     inkscape:groupmode="layer"
     id="layer1">
    <path
       id="path4009"
       style="fill:url(#linearGradient6583);stroke-width:0;fill-opacity:1"
       d="M 4.2333333 0.79375 A 0.52916664 2.6458333 0 0 1 3.9372274 3.1677653 A 0.52916664 1.5875 0 0 1 3.7041667 1.8520833 L 3.7041667 3.4395833 A 0.52916664 1.0583333 0 0 1 3.175 2.38125 L 3.175 3.4395833 A 1.0583333 1.0583333 0 0 0 4.2333333 4.4979167 A 1.0583333 1.0583333 0 0 0 5.2916667 3.4395833 L 5.2916667 2.9104167 A 0.52916664 0.52916663 0 0 1 4.7625 3.4395833 L 4.7625 1.3229167 A 0.52916664 2.1166666 0 0 1 4.5118693 3.12229 A 0.52916664 2.6458333 0 0 1 4.2333333 0.79375 z " />
    <rect
       style="fill:#ffff00;stroke-width:0"
       id="rect9368"
       width="1.0583333"
       height="0.52916664"
       x="1.5875"
       y="3.175" />
    <rect
       style="fill:#ffff00;stroke-width:0"
       id="rect9370"
       width="1.0583333"
       height="0.52916664"
       x="5.8208332"
       y="3.175" />
    <path
       style="fill:#ff0000;stroke:none;stroke-width:0.264583px;stroke-linecap:butt;stroke-linejoin:miter;stroke-opacity:1;fill-opacity:0.5"
       d="M 2.9104166,2.1166666 3.175,1.8520833 2.38125,1.0583333 2.1166666,1.3229166 Z"
       id="path9372" />
    <path
       style="fill:#ff0000;stroke:none;stroke-width:0.264583px;stroke-linecap:butt;stroke-linejoin:miter;stroke-opacity:1;fill-opacity:0.5"
       d="m 5.2916663,2.1166666 -0.2645834,-0.2645833 0.79375,-0.79375 0.2645834,0.2645833 z"
       id="path9376" />
  </g>
  <metadata
     id="metadata33">
    <rdf:RDF>
      <cc:Work
         rdf:about="">
        <cc:license
           rdf:resource="http://creativecommons.org/licenses/by-sa/4.0/" />
      </cc:Work>
      <cc:License
         rdf:about="http://creativecommons.org/licenses/by-sa/4.0/">
        <cc:permits
           rdf:resource="http://creativecommons.org/ns#Reproduction" />
        <cc:permits
           rdf:resource="http://creativecommons.org/ns#Distribution" />
        <cc:requires
           rdf:resource="http://creativecommons.org/ns#Notice" />
        <cc:requires
           rdf:resource="http://creativecommons.org/ns#Attribution" />
        <cc:permits
           rdf:resource="http://creativecommons.org/ns#DerivativeWorks" />
        <cc:requires
           rdf:resource="http://creativecommons.org/ns#ShareAlike" />
      </cc:License>
    </rdf:RDF>
  </metadata>
</svg>

<svg width="32" height="32" viewBox="0 0 8.467 8.467" xmlns:xlink="http://www.w3.org/1999/xlink" xmlns="http://www.w3.org/2000/svg"><defs><linearGradient id="a"><stop style="stop-color:#fff;stop-opacity:1" offset="0"/><stop style="stop-color:#ff0;stop-opacity:1" offset=".254"/><stop style="stop-color:red;stop-opacity:.99607843" offset=".746"/><stop style="stop-color:red;stop-opacity:0" offset="1"/></linearGradient><linearGradient xlink:href="#a" id="b" x1="4.233" y1="4.498" x2="4.233" y2=".794" gradientUnits="userSpaceOnUse"/></defs><path style="fill:url(#b);stroke-width:0;fill-opacity:1" d="M4.233.794a.53 2.646 0 0 1-.296 2.374.53 1.587 0 0 1-.233-1.316V3.44a.53 1.058 0 0 1-.529-1.059V3.44a1.058 1.058 0 0 0 1.058 1.058A1.058 1.058 0 0 0 5.292 3.44v-.53a.53.53 0 0 1-.53.53V1.323a.53 2.117 0 0 1-.25 1.8.53 2.646 0 0 1-.279-2.33z"/><path style="fill:#ff0;stroke-width:0" d="M1.587 3.175h1.058v.529H1.587zM5.821 3.175h1.058v.529H5.821z"/><path style="fill:red;stroke:none;stroke-width:.264583px;stroke-linecap:butt;stroke-linejoin:miter;stroke-opacity:1;fill-opacity:.5" d="m2.91 2.117.265-.265-.794-.794-.264.265ZM5.292 2.117l-.265-.265.794-.794.264.265z"/></svg>
